X:9515
T:Les garons de la montagne
R:Bourre  3 temps
C:trad
A:Massif Central
O:France
Z:S. Piron
M:3/8
L:1/8
Q:1/4=110
K:C
GAG|FDF|E/2D/2 CD|ED2|GAG|FDF|E/2D/2 CB,|C2 z:|
|:CB,C|DEF|D/2E/2 CD|ED2|CB,C|DEF|D/2E/2 DB,|C2 z:|
